X:1
T:Levantine's Barrel
R:Reel
M:C|
K:D
fe|"D"dfAd f2fe|d2ba ^gafe|"A"ceAc eAce|"D"defg "A"a2fe|
"D"dfAd f2fe|d2ba ^gafe|"A"ceAc eAce|"D"d2f2d2:|
|:A2|\
"G"B3 c d2cB|"D"BA^GA F2 ed|"A"ceAc eAce|"D"defg a2 A2|
"G"B3 c d2cB|"D"BA^GA F2 ed|"A"ceAc eAce|"D"d2f2d2:|
